X:1
T:Title
%%score 1 { ( 2 4 ) | 3 }
L:1/8
Q:1/4=105
M:4/4
K:F
V:1 treble nm="Grand Piano, Staff 1"
V:2 treble nm="Choir Pad, Vesper (Ackfield), 65.65"
V:4 treble 
V:3 bass 
V:1
 [FA]3 [FA] [F_A]2 [F=A]2 | [FB]4 [FA]4 | [Fc]3 [_EF] [DF]2 [^CB]2 | [CA]8 | %4
w: By~W.~Ackfield * * *||||
 [FA]3 [GA] [FA]2 [F=B]2 | [Ec]4 [_E^F]4 | [EG]3 [EG] [DG]2 [FG]2 | [EG]8 | [EB]2 C2 [CD]2 [CE]2 | %9
w: |||||
 [CG]4 [CF]4 | [D^F]2 [FA]2 [Fd]2 [Fc]2 | [GB]8 | [EB]2 [CE]2 [CF]2 [EG]2 | [FA]4 [_Ec]4 | %14
w: |||||
 [DB]3 D [CE]2 [EG]2 | F8 |] %16
w: ||
V:2
 C3 C =B,2 C2 | D4 C4 | A,3 A, B,2 F,2 | F,8 | C3 ^C D2 D2 | z4 C4 | C3 C C2 =B,2 | C8 | %8
 C2 C2[K:bass] =B,2 _B,2 | B,4 A,4 | A,2[K:treble] D2 A,2 D2 | D8 | C2 C2 C2 C2 | C4[K:bass] A,4 | %14
 B,3 B, B,2 B,2 | A,8 |] %16
V:3
 F,3 F, F,2 F,2 | F,4 F,4 | F,3 F, F,2 z2 | z8 | F,3 E, D,2 G,2 | A,6 z2 | G,3 G, G,2 G,,2 | C,8 | %8
 C,2 C,2 C,2 C,2 | F,4 F,4 | D,2 D,2 D,2 D,2 | G,8 | z2 B,2 A,2 G,2 | F,4 ^F,4 | G,3 B,, C,2 C,2 | %15
 F,,8 |] %16
V:4
 x8 | x8 | x8 | x8 | x8 | C4 z2 _A,2 | x8 | x8 | x4[K:bass] x4 | x8 | x2[K:treble] x6 | x8 | x8 | %13
 x4[K:bass] x4 | x8 | x8 |] %16

